!!!COM:	Busnoys, Antoine
!!!CDT:	~1430///-1492/11/06
!!!OTL:	Maintes femmes
!!!AGN:	Song; Chanson
!!!SCT:	Bus3039
!!!SCA:	Bus3039
!!!voices:	4
**kern	**text	**text	**kern	**text	**kern	**text	**kern	**text	**text
*staff4	*staff4	*staff4	*staff3	*staff3	*staff2	*staff2	*staff1	*staff1	*staff1
*Ivox	*	*	*Ivox	*	*Ivox	*	*Ivox	*	*
*I"Bassus	*	*	*I"Tenor	*	*I"Contra	*	*I"Discantus	*	*
*I'B	*	*	*I'T	*	*I'C	*	*I'D	*	*
*>[A,B]	*>[A,B]	*>[A,B]	*>[A,B]	*>[A,B]	*>[A,B]	*>[A,B]	*>[A,B]	*>[A,B]	*>[A,B]
*>A	*>A	*>A	*>A	*>A	*>A	*>A	*>A	*>A	*>A
*clefF4	*	*	*clefF4	*	*clefGv2	*	*clefG2	*	*
*k[]	*	*	*k[]	*	*k[]	*	*k[]	*	*
*M3/1	*	*	*M3/1	*	*M3/1	*	*M3/1	*	*
*met(O|)	*	*	*met(O|)	*	*met(O|)	*	*met(O|)	*	*
=1-	=1-	=1-	=1-	=1-	=1-	=1-	=1-	=1-	=1-
!	!	!	!LO:TX:X=-40:Z=7:i:t=Odam si protham teneas in remissio / Dyapason cum paribus ter tene has.*	!	!	!	!	!	!
!LO:TX:X=-70:i:Y=62:t=* ``If you maintain the first [discantus] melody at the octave [below] with a certain negligence,	!	!	!	!	!	!	!	!	!
!LO:TX:X=-70:i:Y=82:t=    increase the value [of the semibreve] by three times by means of pairs [of notes].''	!	!	!	!	!	!	!	!	!
!!LO:TX:Z=12:t=Virelai (no tierce survives)
0.r	.	.	0D	Main-	1A	Main-	1.d	Main-	&
.	.	.	.	.	2B	.	.	.	.
.	.	.	.	.	2A	.	2.f	.	.
.	.	.	1D	.	2.d	-tes	.	.	.
.	.	.	.	.	.	.	4g	.	.
.	.	.	.	.	.	.	2a	.	.
.	.	.	.	.	4c	.	.	.	.
=2	=2	=2	=2	=2	=2	=2	=2	=2	=2
1.D	Main-	&	0F	.	1A	.	2d	.	.
.	.	.	.	.	.	.	4c	.	.
.	.	.	.	.	.	.	4B	.	.
.	.	.	.	.	1r	.	2A	.	.
2.F	.	.	.	.	.	.	2.d	.	.
.	.	.	1F	-tes	1A	fem-	.	.	.
4E	.	.	.	.	.	.	4e	.	.
2D	-tes	.	.	.	.	.	2f	-tes	.
=3	=3	=3	=3	=3	=3	=3	=3	=3	=3
2E	fem-	.	0E	fem-	2G	.	2g	fem-	.
1C	.	.	.	.	2.c	.	1e	.	.
.	.	.	.	.	4B	.	.	.	.
2BB	.	.	.	.	2G	.	1d	.	.
1AA	-mes	.	1E	.	1A	.	.	.	.
.	.	.	.	.	.	.	2c#i	.	.
=4	=4	=4	=4	=4	=4	=4	=4	=4	=4
1r	.	.	0D	-mes	2.F	-mes	1d	-mes	.
.	.	.	.	.	4D	.	.	.	.
1A	m'ont	.	.	.	2.F	.	1r	.	.
.	.	.	.	.	4G	.	.	.	.
2.F	dit	.	1D	m'ont	1A	.	1a	m'ont	.
4D	.	.	.	.	.	.	.	.	.
=5	=5	=5	=5	=5	=5	=5	=5	=5	=5
2F	.	.	0D	dit	1D	.	1.a	dit	.
2G	.	.	.	.	.	.	.	.	.
1A	.	.	.	.	1r	.	.	.	.
.	.	.	.	.	.	.	2f	sou-	.
1D	sou-	.	1D	sou-	1r	.	2a	.	.
.	.	.	.	.	.	.	2b	.	.
=6	=6	=6	=6	=6	=6	=6	=6	=6	=6
2C	.	.	0A	.	1r	.	2cc	.	.
2.F	.	.	.	.	.	.	2.a	.	.
.	.	.	.	.	1r	.	.	.	.
4E	.	.	.	.	.	.	4g	.	.
4D	.	.	.	.	.	.	4f	.	.
4C	.	.	.	.	.	.	4e	.	.
2D	.	.	1A	.	1d	m'ont	2f	.	.
4C	.	.	.	.	.	.	4e	.	.
4BB	.	.	.	.	.	.	4d	.	.
=7	=7	=7	=7	=7	=7	=7	=7	=7	=7
1AA	-vent	.	0A	.	2e	dit	2c	.	.
.	.	.	.	.	2c	.	2.f	.	.
1r	.	.	.	.	2d	.	.	.	.
.	.	.	.	.	.	.	4g	.	.
.	.	.	.	.	2e	.	2.a	.	.
1D	Que	.	1A	.	1d	sou-	.	.	.
.	.	.	.	.	.	.	4e	.	.
.	.	.	.	.	.	.	2f#i	.	.
=8	=8	=8	=8	=8	=8	=8	=8	=8	=8
2E	d'a-	.	0G	-vent	2B	-vent	1g	-vent	.
2.E	-noy	.	.	.	2G	.	.	.	.
.	.	.	.	.	2B	.	2r	.	.
4D	.	.	.	.	.	.	.	.	.
2BB	.	.	.	.	2d	.	2d	Que	.
1C	.	.	1G	Que	1c	.	2e	d'a-	.
.	.	.	.	.	.	.	2e	-noy	.
=9	=9	=9	=9	=9	=9	=9	=9	=9	=9
1D	.	.	0D	d'a-	2B	Que	2f	se	.
.	.	.	.	.	1A	.	1d	tres-	.
1r	.	.	.	.	.	.	.	.	.
.	.	.	.	.	2F	.	1a	.	.
1r	.	.	1D	-noy	2A	d'a-	.	.	.
.	.	.	.	.	2B	.	4g	.	.
.	.	.	.	.	.	.	4f	.	.
=10	=10	=10	=10	=10	=10	=10	=10	=10	=10
1.AA	se	.	0A	se	1c	-noy	2e	.	.
.	.	.	.	.	.	.	2.cc	-pas-	.
.	.	.	.	.	2r	.	.	.	.
.	.	.	.	.	.	.	4b	.	.
2.D	.	.	.	.	2.F	se	2.a	.	.
.	.	.	1A	tres-	.	.	.	.	.
4E	.	.	.	.	4G	.	4g	.	.
2F	.	.	.	.	2A	.	2f	.	.
=11	=11	=11	=11	=11	=11	=11	=11	=11	=11
2G	tres-	.	0G	-pas-	2B	tres-	2e	.	.
1E	-pas-	.	.	.	1c	-pas-	1g	.	.
2D	.	.	.	.	1d	.	2f	.	.
2BB	.	.	1G	.	.	.	2d	.	.
2C	.	.	.	.	2c	.	2e	.	.
=12	=12	=12	=12	=12	=12	=12	=12	=12	=12
1D	.	.	0F	.	2A	.	1f	.	.
.	.	.	.	.	2.B	.	.	.	.
2D	-se-	.	.	.	.	.	2d	-se-	.
.	.	.	.	.	4c	.	.	.	.
2.BB	-roi-	.	.	.	2.d	.	2.f	-roi-	.
.	.	.	1F	-se-	.	.	.	.	.
4C	.	.	.	.	4c	.	4e	.	.
2D	.	.	.	.	4A	.	2d	.	.
.	.	.	.	.	4B	.	.	.	.
=13	=13	=13	=13	=13	=13	=13	=13	=13	=13
1AA	-ent	.	0E	-roi-	2c	.	2c	.	.
.	.	.	.	.	4B	-se-	2.e	.	.
.	.	.	.	.	4A	.	.	.	.
1r	.	.	.	.	2.G	-roi-	.	.	.
.	.	.	.	.	.	.	4d	.	.
.	.	.	.	.	.	.	2.d	.	.
.	.	.	.	.	4F	.	.	.	.
1AA	Aus-	.	1E	.	1A	-ent	.	.	.
.	.	.	.	.	.	.	4B	.	.
.	.	.	.	.	.	.	2c#i	.	.
=14	=14	=14	=14	=14	=14	=14	=14	=14	=14
2D	-si	.	0D	-ent	1r	.	1d	-ent	.
1F	tost	.	.	.	.	.	.	.	.
.	.	.	.	.	1A	Aus-	1r	.	.
2G	.	.	.	.	.	.	.	.	.
1A	.	.	1D	Aus-	2D	-si	1r	.	.
.	.	.	.	.	[2F	tost	.	.	.
=15	=15	=15	=15	=15	=15	=15	=15	=15	=15
1D	.	.	0D	-si	2F]	.	1a	Aus-	.
.	.	.	.	.	2G	.	.	.	.
1r	.	.	.	.	1A	.	2f	-si	.
.	.	.	.	.	.	.	2.d	tost	.
1BB	qu'el-	.	1D	tost	1D	qu'el-	.	.	.
.	.	.	.	.	.	.	4e	.	.
.	.	.	.	.	.	.	[2f	qu'el-	.
=16	=16	=16	=16	=16	=16	=16	=16	=16	=16
1AA	-les	.	0A	qu'el-	2F	-les	4f]	.	.
.	.	.	.	.	.	.	4e	.	.
.	.	.	.	.	1E	per-	2c	-les	.
1C	per-	.	.	.	.	.	1e	per-	.
.	.	.	.	.	1A	.	.	.	.
1D	-de-	.	1A	-les	.	.	1f	-de-	.
.	.	.	.	.	2F	-de-	.	.	.
=17	=17	=17	=17	=17	=17	=17	=17	=17	=17
1E	-roi-	.	0E	per-	2E	-roi-	2g	-roi-	.
.	.	.	.	.	2.G	.	2.c	.	.
2C	.	.	.	.	.	.	.	.	.
.	.	.	.	.	4F	.	4d	.	.
2.G	.	.	.	.	4E	.	2.e	.	.
.	.	.	.	.	4D	.	.	.	.
.	.	.	1E	-de-	1C	-ent	.	.	.
4F	.	.	.	.	.	.	4f	.	.
2E	.	.	.	.	.	.	2g	.	.
=18	=18	=18	=18	=18	=18	=18	=18	=18	=18
1D	-ent	.	0F	-roi-	2r	.	2f	-ent	.
.	.	.	.	.	1D	Ma	2.a	Ma	.
1r	.	.	.	.	.	.	.	.	.
.	.	.	.	.	.	.	4g	.	.
.	.	.	.	.	1A	gra-	4f	.	.
.	.	.	.	.	.	.	4e	.	.
1D	Ma	.	1F	-ent	.	.	2.d	gra-	.
.	.	.	.	.	2B	.	.	.	.
.	.	.	.	.	.	.	4c	.	.
=19	=19	=19	=19	=19	=19	=19	=19	=19	=19
2AA	gra-	.	0E	Ma	2c	-ce,	1.e	-ce,	.
1C	.	.	.	.	1e	mais	.	.	.
2BB	.	.	.	.	2d	.	2.g	mais	.
2GG	.	.	1E	gra-	2B	.	.	.	.
.	.	.	.	.	.	.	4f	.	.
2AA	.	.	.	.	2c	.	2e	.	.
=20	=20	=20	=20	=20	=20	=20	=20	=20	=20
1.BB	-ce,	.	0G	-ce,	1d	.	1.d	.	.
.	.	.	.	.	1r	.	.	.	.
2.C	mais	.	.	.	.	.	2.e	ce	.
.	.	.	1G	mais	1G	ce	.	.	.
4BB	.	.	.	.	.	.	4d	.	.
2C	ce	.	.	.	.	.	2e	.	.
=21	=21	=21	=21	=21	=21	=21	=21	=21	=21
2D	n'est	.	0D	ce	2F	n'est	2f	n'est	.
2.BB-i	.	.	.	.	1G	.	2.d	.	.
4AA	.	.	.	.	.	.	4c	.	.
2FF	.	.	.	.	2A	.	2A	.	.
2GG	.	.	1D	n'est	2G	.	2B	.	.
2BB-i	.	.	.	.	4F	.	2d	.	.
.	.	.	.	.	4G	.	.	.	.
=22	=22	=22	=22	=22	=22	=22	=22	=22	=22
2AA	.	.	0E	.	2.A	.	2c	.	.
2.C	.	.	.	.	.	.	2.e	.	.
.	.	.	.	.	4G	.	.	.	.
.	.	.	.	.	2A	.	.	.	.
4BB-i	.	.	.	.	.	.	4d	.	.
2GG	.	.	.	.	2B-i	.	2B	.	.
1AA	que	.	1E	que	1A	.	2.c#i	que	.
.	.	.	.	.	.	.	4B	.	.
=23	=23	=23	=23	=23	=23	=23	=23	=23	=23
[0.Dl	vent.	.	[0.Dl	vent.	2r	.	[0.dl	vent.	.
.	.	.	.	.	1A	que	.	.	.
.	.	.	.	.	2F	.	.	.	.
.	.	.	.	.	1B-i	.	.	.	.
=24	=24	=24	=24	=24	=24	=24	=24	=24	=24
0.D]	.	.	0.D]	.	0.Al	vent.	0.d]	.	.
!!LO:LB:g=z
=25||!|:	=25||!|:	=25||!|:	=25||!|:	=25||!|:	=25||!|:	=25||!|:	=25||!|:	=25||!|:	=25||!|:
*>B	*>B	*>B	*>B	*>B	*>B	*>B	*>B	*>B	*>B
*clefF4	*	*	*clefF4	*	*clefGv2	*	*clefG2	*	*
*k[]	*	*	*k[]	*	*k[]	*	*k[]	*	*
*M2/1	*	*	*M2/1	*	*M2/1	*	*M2/1	*	*
*met(O2)	*	*	*met(O2)	*	*met(O2)	*	*met(O2)	*	*
!!section: Donc je me suis
!!!OMD: Donc je me suis
!	!	!	!LO:TX:X=-60:i:Z=8:t=Voces a mese non nullas / usque licanos ipaton / psallens recurre singulas.*	!	!	!	!	!	!
!LO:TX:X=-90:Y=90:i:t=*[Solmization puzzle&colon; a la mi re, g sol re ut, f fa ut, e la mi, d sol re; then the whole sequence in retrograde.]	!	!	!	!	!	!	!	!	!
0AA	Donc	Que	0A	Donc	0E	Donc	0c	Donc	Que
=26.	=26	=26	=26.	=26	=26.	=26	=26.	=26	=26
1AA	je	les	0E	je	1A	je	1c	je	les
1AA	ne	plu-	.	.	1A	ne	1c	ne	plu-
=27.	=27	=27	=27.	=27	=27.	=27	=27.	=27	=27
[0BB-	suis	-seurs	0D	ne	1F	suis	[0d	suis	-seurs
.	.	.	.	.	[1B-i	.	.	.	.
=28	=28	=28	=28	=28	=28	=28	=28	=28	=28
1BB-]	.	.	0G	suis	2B-]	.	1d]	.	.
.	.	.	.	.	2A	.	.	.	.
1C	pas	qui	.	.	1G	pas	1e	pas	qui
=29.	=29	=29	=29.	=29	=29.	=29	=29.	=29	=29
1D	es-	l'ont	0D	pas	0F	.	1.f	es-	l'ont
1BB-i	.	.	.	.	.	.	.	.	.
.	.	.	.	.	.	.	4e	.	.
.	.	.	.	.	.	.	4d	.	.
=30.	=30	=30	=30.	=30	=30.	=30	=30.	=30	=30
0AA	-per-	per-	0C	es-	1r	.	1e	.	.
.	.	.	.	.	[1A	es-	1e	-per-	per-
=31	=31	=31	=31	=31	=31	=31	=31	=31	=31
1r	.	.	0F	-per-	2A]	.	1.c	-du,	-du
.	.	.	.	.	2B	-per-	.	.	.
[1A	-du,	-du	.	.	[1c	-du,	.	.	.
.	.	.	.	.	.	.	2d	.	.
=32.	=32	=32	=32.	=32	=32.	=32	=32.	=32	=32
2A]	.	.	0C	-du,	2c]	.	1.e	.	.
2G	.	.	.	.	2B	.	.	.	.
[1E	.	.	.	.	[1G	.	.	.	.
.	.	.	.	.	.	.	2d	.	.
=33.	=33	=33	=33.	=33	=33.	=33	=33.	=33	=33
2E]	.	.	0E	.	2G]	.	1.B	.	.
2F	.	.	.	.	2A	.	.	.	.
[1G	.	.	.	.	[1B	.	.	.	.
.	.	.	.	.	.	.	2c	.	.
=34	=34	=34	=34	=34	=34	=34	=34	=34	=34
2G]	.	.	0BB	.	2B]	.	1.d	.	.
2F	.	.	.	.	2A	.	.	.	.
[1D	.	.	.	.	[1F	.	.	.	.
.	.	.	.	.	.	.	2c	.	.
=35.	=35	=35	=35.	=35	=35.	=35	=35.	=35	=35
2D]	.	.	0D	.	2F]	.	1.A	.	.
2E	.	.	.	.	2G	.	.	.	.
[1F	.	.	.	.	[1A	.	.	.	.
.	.	.	.	.	.	.	2B	.	.
=36.	=36	=36	=36.	=36	=36.	=36	=36.	=36	=36
2F]	.	.	0AA	.	2A]	.	0c	.	.
2E	.	.	.	.	2G	.	.	.	.
[1C	.	.	.	.	1E	.	.	.	.
=37	=37	=37	=37	=37	=37	=37	=37	=37	=37
1C]	.	.	0AA	Mais	0A	.	1r	.	.
[1F	Mais	Sont	.	.	.	.	[1A	Mais	Sont
=38.	=38	=38	=38.	=38	=38.	=38	=38.	=38	=38
1F]	.	.	0D	que	0A	Mais	1A]	.	.
[1D	que	en	.	.	.	.	[1d	que	en
=39.	=39	=39	=39.	=39	=39.	=39	=39.	=39	=39
1D]	.	.	0BB	plus	0d	que	1d]	.	.
[1G	plus	tres	.	.	.	.	[1B	plus	tres
=40	=40	=40	=40	=40	=40	=40	=40	=40	=40
1G]	.	.	0E	est,	0B	plus	1B]	.	.
[1E	est,	bon	.	.	.	.	[1e	est,	bon
=41.	=41	=41	=41.	=41	=41.	=41	=41.	=41	=41
1E]	.	.	0C	.	0e	est,	1e]	.	.
[1A	je	point	.	.	.	.	[1c	je	point
=42.	=42	=42	=42.	=42	=42.	=42	=42.	=42	=42
1A]	.	.	0F	.	0c	.	1c]	.	.
1F	vous	.	.	.	.	.	[1f	vous	.
=43	=43	=43	=43	=43	=43	=43	=43	=43	=43
0G	.	.	0C	je	1r	.	1f]	.	.
.	.	.	.	.	1c	je	1e	.	.
=44.	=44	=44	=44.	=44	=44.	=44	=44.	=44	=44
0F	.	.	0D	vous	1A	.	0f	.	.
.	.	.	.	.	1A	vous	.	.	.
=45.	=45	=45	=45.	=45	=45.	=45	=45.	=45	=45
0E	as-	a	0G	as-	1B	.	1r	.	.
.	.	.	.	.	1B	as-	1g	as-	a
=46	=46	=46	=46	=46	=46	=46	=46	=46	=46
2F	.	ces-	0D	-seu-	2A	.	2a	.	ces-
2.D	-seu-	-te heu-	.	.	2.F	-seu-	2.a	-seu-	-te heu-
4E	.	.	.	.	4E	.	4g	.	.
2F	.	.	.	.	2D	.	2f	.	.
=47.	=47	=47	=47.	=47	=47.	=47	=47.	=47	=47
2E	.	.	0E	.	2C	.	2g	.	.
2.C	.	.	.	.	1G	.	2.e	.	.
4BB	.	.	.	.	.	.	4d	.	.
2C	.	.	.	.	2A	.	4c	.	.
.	.	.	.	.	.	.	4B	.	.
=48.	=48	=48	=48.	=48	=48.	=48	=48.	=48	=48
1D	.	.	[0Al	-re.	2F	.	2A	.	.
.	.	.	.	.	2D	.	1d	.	.
1AA	.	.	.	.	1E	.	.	.	.
.	.	.	.	.	.	.	2c#i	.	.
=49	=49	=49	=49	=49	=49	=49	=49	=49	=49
!!*^	*	*	*	*	*	*	*	*	*
0Dl 0Al	-re.	-re.	0A]	.	0Dl	-re.	0dl	-re.	-re.
!!*v	*v	*	*	*	*	*	*	*	*	*
==:|!50	==:|!50	==:|!50	==:|!50	==:|!50	==:|!50	==:|!50	==:|!50	==:|!50	==:|!50
*-	*-	*-	*-	*-	*-	*-	*-	*-	*-
!!!RDF**kern: l=long note in original notation
!!!RDF**kern: i=editorial accidental
!!!ENC:	Chris Gage 05-13-2015
!!!END:	2015/10/29/
!!!EED:	Jesse Rodin
!!!EEV:	2015/10/30/
!!!ONB:	Translated from MusicXML and edited on 2015/10/30/ by Craig Sapp
!!muse2ps: C^@{COM}^i2I150v85,85,85,120z18l2600Q16c46
